images/blac-logo.svg

<svg xmlns="http://www.w3.org/2000/svg" viewBox="0 0 140.6 34" enable-background="new 0 0 140.6 34"><g fill="#fff"><path d="M34.1 34h-34.1v-34h34.1v34zm-6.9-20.6v-6.3h-20.2v6.3h20.2zm-20.3 13.7h20.2v-6.3h-20.2v6.3zM72.2 7v-7h34.1v33.9h-34.1v-20.4h27.1v-6.6c-9 .1-18 .1-27.1.1zm7 13.7v6.4h20.2v-6.4h-20.2zM110 33.9v-33.9h30.6v6.9h-23.6v20.3h23.6v6.8c-10.1-.1-20.2-.1-30.6-.1zM37.9 0h6.7v27.1h23.8v6.8h-30.5v-33.9z"/></g></svg>

<?xml version="1.0" encoding="utf-8"?>
<!-- Generator: Adobe Illustrator 17.1.0, SVG Export Plug-In . SVG Version: 6.00 Build 0)  -->
<!DOCTYPE svg PUBLIC "-//W3C//DTD SVG 1.1//EN" "http://www.w3.org/Graphics/SVG/1.1/DTD/svg11.dtd">
<svg version="1.1" id="Layer_1" xmlns="http://www.w3.org/2000/svg" xmlns:xlink="http://www.w3.org/1999/xlink" x="0px" y="0px"
	 viewBox="0 0 140.6 34" enable-background="new 0 0 140.6 34" xml:space="preserve">
<g id="QjJMqz_1_">
	<g>
		<path fill="#FFFFFF" d="M34.1,34C22.7,34,11.4,34,0,34C0,22.6,0,11.4,0,0c11.4,0,22.7,0,34.1,0C34.1,11.3,34.1,22.6,34.1,34z
			 M27.2,13.4c0-2.2,0-4.3,0-6.3c-6.8,0-13.5,0-20.2,0c0,2.2,0,4.2,0,6.3C13.8,13.4,20.4,13.4,27.2,13.4z M6.9,27.1
			c6.9,0,13.5,0,20.2,0c0-2.2,0-4.2,0-6.3c-6.8,0-13.5,0-20.2,0C6.9,22.9,6.9,25,6.9,27.1z"/>
		<path fill="#FFFFFF" d="M72.2,7c0-2.5,0-4.6,0-7c11.4,0,22.7,0,34.1,0c0,11.3,0,22.5,0,33.9c-11.3,0-22.7,0-34.1,0
			c0-6.7,0-13.4,0-20.4c9,0,18,0,27.1,0c0-2.3,0-4.3,0-6.6C90.3,7,81.3,7,72.2,7z M79.2,20.7c0,2.3,0,4.4,0,6.4c6.8,0,13.5,0,20.2,0
			c0-2.2,0-4.2,0-6.4C92.6,20.7,86,20.7,79.2,20.7z"/>
		<path fill="#FFFFFF" d="M110,33.9c0-11.3,0-22.6,0-33.9c10.2,0,20.3,0,30.6,0c0,2.2,0,4.4,0,6.9c-7.8,0-15.6,0-23.6,0
			c0,6.8,0,13.5,0,20.3c7.8,0,15.6,0,23.6,0c0,2.3,0,4.5,0,6.8C130.5,33.9,120.4,33.9,110,33.9z"/>
		<path fill="#FFFFFF" d="M37.9,0c2.3,0,4.4,0,6.7,0c0,9,0,18,0,27.1c8,0,15.8,0,23.8,0c0,2.4,0,4.5,0,6.8c-10.1,0-20.2,0-30.5,0
			C37.9,22.7,37.9,11.4,37.9,0z"/>
	</g>
</g>
</svg>
